!!!!SEGMENT: pl-wtm--r-116-n--003_noskowski-zygmunt--causeries-op-32-canzonetta.krn
!!!cenid: 18xx:2137
!!!COM: Noskowski, Zygmunt
!!!COM-rismID:
!!!CDT: 1846/05/02-1909/07/23
!!!CNT: Polish
!!!GTL: Causeries op. 32
!!!OTL: Canzonetta
!!!PDT: 1850
!!!AGN: Secular
!!!SMS-siglum: PL-Wtm
!!!SMS-shelfmark: R 116/N
!!!SMS-shelfwork: 003 G
!!!SMS-variant:
!!!SMS-altvar:
!!!NIFC-rismSourceID: 1001084173
!!!NIFC-islandoraID:
!!!URL-pdf-islandora:
!!!URL-scan:
!!!ONB-nifc:
!!!OMD: Andantino con moto.
!!!AIN: 1 empty 1 piano
!!!key:
**kern	**fing	**kern	**fing	**dynam
*part2	*	*part1	*	*part1
*staff2	*	*staff1	*	*
*Iempty	*	*Ipiano	*	*
*	*	*I"Piano	*	*
*clefF4	*	*clefG2	*	*
*k[b-e-]	*	*k[b-e-]	*	*
*g:	*	*g:	*	*
*M2/4	*	*M2/4	*	*
=1	=1	=1	=1	=1
*	*	*^	*	*
!	!	!LO:TX:t=P:problem=UWAGA! LB i PB wprowadzone wg źródła	!	!	!
!	!	!LO:TX:t=P:problem=4, 8, 16\left, middle or right&colon; global	!	!	!LO:DY:b:rj
8cL 8D\	.	(>16f#X/LL	8d\	.	p
.	.	16g/	.	.	.
!	!	!LO:TX:i:b:t=cantabile.	!	!	!
8GG\J	.	16a/	8rc	.	.
.	.	16b-/JJ	.	.	.
8cL 8D\	.	8a/L	8d\	.	.
8GG\J	.	16g/L	8rc	.	.
.	.	16f#/JJ	.	.	.
=2	=2	=2	=2	=2	=2
8B-L 8D\	.	8g/)	8d\	.	.
8GG\J	.	4dd/	8rd	.	.
8B-L 8D\	.	.	8d\	.	.
8GG\J	.	8dd/	8rd	.	.
=3	=3	=3	=3	=3	=3
8e-L 8G\	.	(>16cc/LL	8g\	.	.
.	.	16bn/	.	.	.
8C\J	.	16cc/	8rd	.	.
.	.	16dd/JJ	.	.	.
8cL 8F\	.	8ee-/L	8a\	.	.
8FF\J	.	16gg/L	8rd	.	.
.	.	16ee-/JJ)	.	.	.
=4	=4	=4	=4	=4	=4
8B-L 8F\	.	(>8dd/	8f\	.	.
8BB-\J	.	4b-/	8rd	.	.
8dL 8B-\	.	.	8f\	.	.
8D\J	.	8ff/)	8rd	.	.
=5	=5	=5	=5	=5	=5
8e-L 8c\	.	(<16ff/LL	8g\	.	.
.	.	16ee-/)	.	.	.
8C\J	.	(<16ee-/	8rd	.	.
.	.	16dd/JJ)	.	.	.
8E-\L	.	(<8.cc/L	4rd	.	.
8cJ 8G\	.	.	.	.	.
.	.	16g/Jk)	.	.	.
*	*	*v	*v	*	*
!!LO:LB:g=original
=6	=6	=6	=6	=6
8BB-/	.	(>16ee-\LL	.	.
.	.	16dd\)	.	.
4d 4G\	.	(>16dd\	.	.
.	.	16cc#X\JJ)	.	.
.	.	(>8.dd\L	.	.
8d 8G 8En\	.	.	.	.
.	.	16g\Jk)	.	.
=7	=7	=7	=7	=7
!	!	!	!	!LO:HP:b
8AA\L	.	(<16f/LL	.	<
.	.	16g/	.	.
8dJ 8A 8F\	.	16a/	.	.
.	.	16dd/JJ)	.	.
8AA\L	.	(>16cc#X\LL	.	[
.	.	16dd\J	.	.
8c#XJ 8A\	.	8eenJ 8g\)	.	.
=8	=8	=8	=8	=8
8DD/	.	8dd\	.	.
4f 4A 4D\	.	4aa^> 4dd 4a\	.	.
.	.	.	.	>
8r	.	8dd\	.	]
=9:|!	=9:|!	=9:|!	=9:|!	=9:|!
*	*	*^	*	*
!	!	!	!	!	!LO:DY:b
8DD/	.	(>8.ee-/L	8r	.	mf
4c 4A 4D\	.	.	4f#X\	.	.
.	.	16dd/Jk	.	.	.
.	.	8a/L)	.	.	.
8c 8A 8D\	.	8a/J	8f#\	.	.
*	*	*v	*v	*	*
=10	=10	=10	=10	=10
8C\L	.	(>24a/LL	.	.
.	.	24b-/	.	.
.	.	24cc/JJ	.	.
8dJ 8A 8F#X\	.	4dd\	.	.
8BB-\L	.	.	.	.
8dJ 8G\	.	8g/)	.	.
!!LO:LB:g=original
=11	=11	=11	=11	=11
*	*	*^	*	*
!	!	!	!	!	!LO:HP:b
8BB-\L	.	(>8.gg/L	8r	.	<
8dJ 8B-\	.	.	8a-X\	.	[
.	.	16ff/Jk	.	.	.
8A-X\L	.	8b-/L)	4rc	.	.
8fJ 8d 8B-\	.	8b-/J	.	.	.
*	*	*v	*v	*	*
=12	=12	=12	=12	=12
8G\	.	(>24b-\LL	.	.
.	.	24cc\	.	.
.	.	24dd\JJ	.	.
4g 4e- 4B-\	.	4ee-\)	.	.
8r	.	(>16dd\LL	.	.
.	.	16ee-\JJ	.	.
=13	=13	=13	=13	=13
*	*	*^	*	*
!	!	!	!	!	!LO:DY:b:rj
8FF\L	.	8.aa-X/L	8r	.	f
!	!	!LO:TX:b:t=sos-te-nu-to.:dur=6e:ext=cd:problem=text with extention lines	!	!	!
8e-J 8c 8F\	.	.	8a-X\	.	.
.	.	16cc/Jk)	.	.	.
8B-L 8BB-\	.	(>24dd/LL	8a-\L	.	.
.	.	24ee-/	.	.	.
.	.	24ff/J	.	.	.
8E-J 8EE-\	.	8gg/J)	8ddJ 8g\	.	.
=14	=14	=14	=14	=14	=14
8AA-X\L	.	(<8.gg/L	8r	.	.
8e-J 8c 8G\	.	.	8g\	.	.
.	.	16b-/Jk)	.	.	.
8D/L	.	(>24cc/LL	8f\L	.	.
.	.	24dd/	.	.	.
.	.	24ee-/J	.	.	.
8GJ 8GG/	.	8ff/J)	8bnJ 8f\	.	.
=15	=15	=15	=15	=15	=15
8CL 8CC\	.	(>16ff/LL	8cc 8g\	.	.
.	.	16ee-/	.	.	.
8cJ 8G\	.	16dd/	8rd	.	.
.	.	16ee-/JJ	.	.	.
8E-\L	.	16an/LL	8rd	.	.
.	.	16b-/	.	.	.
8cJ 8G\	.	16dd/	8g\	.	.
.	.	16cc/JJ	.	.	.
*	*	*v	*v	*	*
!!LO:LB:g=original
=16	=16	=16	=16	=16
!	!	!LO:TX:b:t=P:problem=łuk w t. 16 pod nutami	!	!
8D\L	.	16a/LL	.	.
.	.	16e-/	.	.
8cJ 8F#X\	.	16d/	.	.
!	!	!	!	!LO:HP:b:t=dimin
.	.	16e-/JJ	.	>
4r	.	16d/LL	.	.
.	.	16e-/	.	.
.	.	16en/	.	.
.	.	16f/JJ)	.	.
=17	=17	=17	=17	=17
*	*	*^	*	*
!	!	!	!	!	!LO:DY:b:rj
(>16c\LL	.	(>16f#X/LL	8d\	.	p
16D\J	.	16g/	.	.	.
8GG\J)	.	16a/	8rc	.	.
.	.	16b-/JJ	.	.	.
8cL 8D\	.	8a/L	8d\	.	.
8GG\J	.	16g/L	8rc	.	.
.	.	16f#/JJ	.	.	.
=18	=18	=18	=18	=18	=18
(>16B-\LL	.	8g/)	8d\	.	.
16D\J	.	.	.	.	.
8GG\J)	.	4dd/	8rd	.	.
8B-L 8D\	.	.	8d\	.	.
8GG\J	.	8dd/	8rd	.	.
=19	=19	=19	=19	=19	=19
(>16e-\LL	.	(>16cc/LL	8g\	.	.
16G\J	.	16bn/	.	.	.
8C\J)	.	16cc/	8re	.	.
.	.	16dd/JJ	.	.	.
8cL 8F\	.	8ee-/L	8a\	.	.
8FF\J	.	16gg/L	8re	.	.
.	.	16ee-/JJ)	.	.	.
=20	=20	=20	=20	=20	=20
(>16B-\LL	.	(>8dd/	8f\	.	.
16F\J	.	.	.	.	.
8BB-\J)	.	4b-/	8re	.	.
8dL 8B-\	.	.	8f\	.	.
8D\J	.	8ff/)	8re	.	.
!!LO:LB:g=original
=21	=21	=21	=21	=21	=21
8e-L 8c\	.	(<16ff/LL	8g\	.	.
.	.	16ee-/)	.	.	.
8C\J	.	(<16ee-/	8re	.	.
.	.	16dd/JJ)	.	.	.
(16E-\LL	.	(<8.cc/L	4re	.	.
16G\J	.	.	.	.	.
8c\J)	.	.	.	.	.
.	.	16g/Jk)	.	.	.
*	*	*v	*v	*	*
=22	=22	=22	=22	=22
!	!	!	!	!LO:HP:b
8BB-\L	.	(>16ee-\LL	.	<
.	.	16dd\)	.	.
8dJ 8G\	.	(>16dd\	.	.
.	.	16cc\JJ)	.	.
8C\L	.	(<8b-/L	.	[
8e-J 8G\	.	16a/L	.	.
.	.	16g/JJ)	.	.
=23	=23	=23	=23	=23
4AA/	.	(<8b-/L	.	.
.	.	16a/L	.	.
.	.	16g/JJ)	.	.
4en 4c#X 4G\	.	(<8b-/L	.	.
!	!	!	!	!LO:HP:b
.	.	(<16qqcc/LL	.	>
.	.	16qqb-/JJ	.	.
.	.	16a/L)	.	.
.	.	16g/JJ)	.	]]
=24	=24	=24	=24	=24
*ped	*	*	*	*
8DD/	.	(>16f#X/LL	.	.
.	.	16a/JJ	.	.
4A 4D;>\	.	4dd 4f#;>\)	.	.
!	!	!	!	!LO:DY:b:rj
8r	.	(>16een\LL	.	p
.	.	16bn\JJ	.	.
*kcancel	*	*	*	*
!!LO:PB:g=original
=25||	=25||	=25||	=25||	=25||
*k[f#]	*	*k[f#]	*	*
!	!	!LO:TX:i:a:t=espressivo	!	!
!	!	!LO:TX:a:t=P:problem=brak zakończenia łuku	!	!
8GG\L	.	(>8dd\L)	.	.
(>8BJ 8D#X\	.	16cc\L	.	.
.	.	16b\JJ	.	.
.	.	(<16qqa/LL	.	.
.	.	16qqb/JJ	.	.
8cL 8E\	.	16a/LL)	.	.
.	.	16g/	.	.
8dnJ 8F#\)	.	16a/	.	.
.	.	16cc/JJ)	.	.
=26	=26	=26	=26	=26
8dL 8G\	.	(<8b/L	.	.
8BB\J	.	16g/L	.	.
.	.	16e/JJ	.	.
8BL 8D\	.	16d/LL	.	.
.	.	16f#/	.	.
8GG\J	.	16g/	.	.
.	.	16b/JJ)	.	.
=27	=27	=27	=27	=27
8c 8F# 8D\	.	(>8dd\L	.	.
4GG/	.	16a\L	.	.
!	!	!	!	!LO:HP:b
.	.	16b\JJ	.	<
.	.	(<8qdd/	.	.
.	.	16cc\LL)	.	.
.	.	16b\	.	.
8c 8F# 8D\	.	16cc\	.	.
.	.	16aa\JJ	.	[
=28	=28	=28	=28	=28
8GG\L	.	4.gg\)	.	.
8BJ 8D\	.	.	.	.
8BB\L	.	.	.	.
8dJ 8G 8Fn\	.	(>16gg\LL	.	.
.	.	16dd\JJ	.	.
=29	=29	=29	=29	=29
8C\L	.	8ee\L	.	.
8eJ 8G\	.	16dd\L	.	.
.	.	16cc\JJ	.	.
8AA\L	.	16gg\LL	.	.
.	.	16cc\	.	.
8eJ 8c 8G\	.	16dd\	.	.
.	.	16ee\JJ)	.	.
!!LO:LB:g=original
=30	=30	=30	=30	=30
8BB\L	.	(>8dd\L	.	.
8dJ 8G\	.	16cc\L	.	.
.	.	16b\JJ	.	.
8EE\L	.	16gg\LL	.	.
.	.	16b\	.	.
8eJ 8B 8G\	.	16ee\	.	.
.	.	16dd\JJ)	.	.
=31	=31	=31	=31	=31
8AA\L	.	(>8cc#X\L	.	.
8eJ 8B 8G\	.	16dd\L	.	.
.	.	16b\JJ	.	.
8eL 8c#X 8G\	.	16a\LL	.	.
.	.	16cc#\	.	.
8AA\J	.	16ee\	.	.
.	.	16ff#\JJ	.	.
=32	=32	=32	=32	=32
8DD/	.	4dd\)	.	.
(>16ALL 16D\	.	.	.	.
16B\JJ	.	.	.	.
8A 8D\)	.	8r	.	.
!	!	!	!	!LO:DY:b
8r	.	(>16aaLL 16ff#\	3 5	pp
.	.	16b\JJ	.	.
=33	=33	=33	=33	=33
*ped	*	*	*	*
4AA 4DD/	.	16aaLL 16ff#\	.	.
.	.	16b\	.	.
.	.	16aa 16ff#\	2 4	.
.	.	16ggJJ 16ee\	.	.
4c#X 4A 4E\	.	16bbLL 16gg\	.	.
.	.	16cc#X\	.	.
*Xped	*	*	*	*
.	.	16bb 16gg\	.	.
.	.	16aaJJ 16ff#\	.	.
=34	=34	=34	=34	=34
4AA 4DD/	.	16bbLL 16gg\	.	.
*ped	*	*	*	*
.	.	16dd\	.	.
.	.	16bb 16gg\	.	.
.	.	16aaJJ 16ff#\	.	.
4d 4A 4F#\	.	8dddL 8dd\)	.	.
*Xped	*	*	*	*
!	!	!	!	!LO:DY:b
.	.	(>16ccc#X\L	5	p
.	.	16aa\JJ	3	.
!!LO:LB:g=original
=35	=35	=35	=35	=35
8D\L	.	16gg\LL	.	.
.	.	16bb\	.	.
8eJ 8B 8G\	.	16dd\	.	.
.	.	16ee\JJ	3	.
8D\L	.	16cc#X\LL	2	.
.	.	16gg\	.	.
8eJ 8A 8G\	.	16b\	.	.
.	.	16cc#\JJ	.	.
=36	=36	=36	=36	=36
8dL 8A 8F#\	.	4a/)	.	.
(>8A\	.	.	.	.
8D\J)	.	8r	.	.
!	!	!	!	!LO:DY:b
8r	.	(>16ff#LL 16dd\	.	pp
.	.	16f#\JJ	.	.
=37	=37	=37	=37	=37
*ped	*	*	*	*
4F# 4BB/	.	16ff#LL 16dd\	.	.
.	.	16g\	.	.
.	.	16ff# 16dd\	.	.
.	.	16eeJJ 16cc#X\	.	.
4f# 4c#X 4A#X\	.	16ggLL 16ee\	.	.
.	.	16a#X\	.	.
*Xped	*	*	*	*
.	.	16gg 16ee\	.	.
.	.	16ff#JJ 16dd\	.	.
=38	=38	=38	=38	=38
*ped	*	*	*	*
4F# 4BB/	.	16ggLL 16ee\	.	.
.	.	16b\	.	.
.	.	16gg 16ee\	.	.
.	.	16ff#JJ 16dd\)	.	.
4f# 4d 4B\	.	8bbL 8b\	.	.
*Xped	*	*	*	*
!	!	!	!	!LO:DY:b
.	.	(>16aa#X\L	5	p
.	.	16ff#\JJ	3	.
=39	=39	=39	=39	=39
8BB\L	.	16ee\LL	.	.
.	.	16gg\	.	.
8eJ 8B 8G\	.	16b\	.	.
.	.	16cc#X\JJ	3	.
8BB\L	.	16a#X\LL	2	.
.	.	16ee\	.	.
8eJ 8A#X 8F#\	.	16dd\	.	.
.	.	16cc#\JJ)	.	.
!!LO:LB:g=original
=40	=40	=40	=40	=40
16BB\LL	.	(>[>4b\	2	.
16F#\	.	.	.	.
16d\	.	.	.	.
16c#X\JJ	.	.	.	.
!	!	!	!	!LO:HP:b
8B\	.	16b\LL]	.	<
.	.	16cc#X\	3	.
8r	.	16dd\	1	.
.	.	16ff#\JJ	.	[[
=41	=41	=41	=41	=41
8BB\L	.	16.aa^>\LL	.	.
.	.	32ff#\K	.	.
8F#\	.	16aa\	.	.
!	!	!	!	!LO:HP:b
.	.	16ee#X\JJ	.	>
8c#X\	.	16aa\LL	.	.
.	.	16een\	.	.
8e\J	.	16aa\	.	]
.	.	16cc#X\JJ)	.	.
=42	=42	=42	=42	=42
(>16d\LL	.	(>[>4b\	.	.
16A#X\	.	.	.	.
16B\	.	.	.	.
16F#\JJ	.	.	.	.
!	!	!	!	!LO:HP:b
8BB/)	.	16b\LL]	.	<
.	.	16cc#X\	.	.
8r	.	16dd\	.	.
.	.	16ee\JJ	.	[
=43	=43	=43	=43	=43
*	*^	*	*	*
8AAn/	.	.	16.ff#^>\LL	.	.
.	.	.	32dd\K	.	.
4d 4cn 4F#\	.	.	16ff#\	.	.
.	.	.	16cc#X\JJ	.	.
!	!	!	!	!	!LO:HP:b
.	.	.	16ff#\LL	.	>
.	.	.	16ccn\	.	.
8DD/	.	5	16ff#\	.	.
.	.	.	16a\JJ	.	.
=44	=44	=44	=44	=44	=44
(<16GG/LL	.	3	4g/)	.	]
16D/	.	1	.	.	.
16C#X/	.	3	.	.	.
16D/JJ	.	.	.	.	.
8G\)	.	.	8r	.	.
!	!	!	!	!	!LO:DY:b:rj
8r	.	.	(>16ee\LL	.	p
.	.	.	16b\JJ	.	.
*	*v	*v	*	*	*
!!LO:PB:g=original
=45	=45	=45	=45	=45
(>16GG/LL	.	8dd\L	.	.
16D/JJ	.	.	.	.
4c 4F#\	.	16cc\L	.	.
.	.	16b\JJ	.	.
.	.	(<16qqa/LL	.	.
.	.	16qqb/JJ	.	.
.	.	16a/LL)	.	.
.	.	16g/	.	.
8D\)	.	16a/	.	.
.	.	16cc/JJ)	.	.
=46	=46	=46	=46	=46
(>16GG/LL	.	(<8b/L	.	.
16D/JJ	.	.	.	.
4B 4G\	.	16g/L	.	.
.	.	16e/JJ	.	.
.	.	16d/LL	.	.
.	.	16f#/	.	.
8D\)	.	16g/	.	.
.	.	16b/JJ)	.	.
=47	=47	=47	=47	=47
(>16GG/LL	.	(>8dd\L	.	.
16D/JJ	.	.	.	.
4c 4F#\	.	16a\L	.	.
!	!	!	!	!LO:HP:b
.	.	16b\JJ	.	<
.	.	(8qdd/	.	.
.	.	16cc\LL)	.	.
.	.	16b\	.	.
8D\)	.	16cc\	.	.
.	.	16aa\JJ	.	.
=48	=48	=48	=48	=48
(>16GG\LL	.	4.gg\)	.	[
16D\J	.	.	.	.
8B\J)	.	.	.	.
(>16BB\LL	.	.	.	.
16Fn\J	.	.	.	.
8dJ 8G\)	.	(>16gg\LL	.	.
.	.	16dd\JJ	.	.
=49	=49	=49	=49	=49
!	!	!	!	!LO:DY:b:rj
(>16C\LL	.	8ee\L	.	mf
16G\J	.	.	.	.
8e\J)	.	16dd\L	.	.
.	.	16cc\JJ	.	.
8AA\L	.	16gg\LL	.	.
.	.	16cc\	.	.
8eJ 8c 8G\	.	16dd\	.	.
.	.	16ee\JJ)	.	.
!!LO:PB:g=original
=50	=50	=50	=50	=50
(>16BB\LL	.	(>8dd\L	.	.
16G\J	.	.	.	.
8d\J)	.	16cc\L	.	.
.	.	16b\JJ	.	.
8D\L	.	16gg\LL	.	.
.	.	16b\	.	.
8BJ 8Fn\	.	16cc\	.	.
.	.	16dd\JJ)	.	.
=51	=51	=51	=51	=51
!	!	!	!	!LO:DY:b
8C\L	.	(<16ee/LL	.	f
.	.	16e/	.	.
8cJ 8G\	.	16f#/	.	.
.	.	16g/JJ	.	.
4r	.	16a/LL	.	.
.	.	16b/	.	.
.	.	16cc/	.	.
.	.	16dd/JJ)	.	.
=52	=52	=52	=52	=52
!	!	!	!	!LO:DY:b:rj
8AA\L	.	(<16ee-X/LL	.	p
.	.	16e-X/	.	.
8cJ 8G\	.	16fn/	.	.
.	.	16g/JJ	.	.
!	!	!	!	!LO:HP:b
4r	.	16a\LL	.	<
.	.	16b-X\	.	.
.	.	16cc\	.	.
.	.	16dd\JJ)	.	[[
=53||	=53||	=53||	=53||	=53||
*k[b-e-]	*	*k[b-e-]	*	*
!	!	!LO:TX:a:t=P:problem=łuk kończy się pod nutami	!	!LO:DY:b:rj
2r	.	(>16ee-\LL	.	mf
.	.	16gg\	.	.
.	.	16ee-\	.	.
.	.	16bn\JJ	.	.
.	.	16dd\LL	.	.
.	.	16cc\	.	.
.	.	16ee-\	.	.
.	.	16b-X\JJ	.	.
=54	=54	=54	=54	=54
!	!	!	!	!LO:HP:b
2r	.	16cc\LL	.	>
.	.	16ee-\	.	.
.	.	16cc\	.	.
.	.	16g#X\JJ	.	.
.	.	16b-/LL	.	.
.	.	16a/	.	.
.	.	16cc/	.	.
.	.	16gn/JJ	.	]
!!LO:LB:g=original
=55	=55	=55	=55	=55
!	!	!	!	!LO:HP:b:t=molto diminuendo
2ryy	.	16a/LL	.	>
.	.	16cc/	.	.
.	.	16a/	.	.
.	.	16f#X/JJ	.	.
.	.	16a/LL	.	.
.	.	16fn/	.	.
.	.	16a/	.	.
.	.	16en/JJ	.	.
=56	=56	=56	=56	=56
!	!	!LO:TX:a:i:t=poco sost	!	!
2ryy	.	16a/LL	.	.
.	.	16e-X/	.	.
.	.	16d/	.	.
.	.	16e-/JJ	.	.
.	.	16d/LL	.	.
.	.	16e-/	.	.
.	.	16en/	.	.
.	.	16f/JJ)	.	.
=57	=57	=57	=57	=57
*	*	*^	*	*
!	!	!	!	!	!LO:DY:b:rj
*ped	*	*	*	*	*
16r	.	(>16f#X/LL	8d\	.	pp
(>16c\LL	.	16g/	.	.	.
16D\	.	16a/	8rc	.	.
16GG\JJ)	.	16b-/JJ	.	.	.
8cL 8D\	.	8a/L	8d\	.	.
*Xped	*	*	*	*	*
8GG\J	.	16g/L	8rc	.	.
.	.	16f#/JJ)	.	.	.
=58	=58	=58	=58	=58	=58
*ped	*	*	*	*	*
16r	.	8g/	8d\	.	.
(>16B-\LL	.	.	.	.	.
16D\	.	4dd/	8re	.	.
16GG\JJ)	.	.	.	.	.
8AL 8D\	.	.	8d\	.	.
*Xped	*	*	*	*	*
8GG\J	.	8dd/	8re	.	.
=59	=59	=59	=59	=59	=59
16r	.	(>16cc/LL	8g\	.	.
(>16e-\LL	.	16bn/	.	.	.
16G\	.	16cc/	8re	.	.
!	!	!	!	!	!LO:HP:b
16C\JJ)	.	16dd/JJ	.	.	<
8cL 8F\	.	8ee-/L	8a\	.	.
8FF\J	.	16gg/L	8re	.	.
.	.	16ee-/JJ)	.	.	[[
!!LO:LB:g=original
=60	=60	=60	=60	=60	=60
16r	.	(>8dd/	8f\	.	.
(>16B-\LL	.	.	.	.	.
16F\	.	4b-/	8re	.	.
16BB-\JJ)	.	.	.	.	.
8dL 8B-\	.	.	8f\	.	.
8D\J	.	8ff/)	8re	.	.
=61	=61	=61	=61	=61	=61
!	!	!	!	!	!LO:DY:b:rj
16r	.	(<16ff/LL	8g\	.	p
(>16C\LL	.	16ee-/)	.	.	.
16G\	.	(<16ee-/	8rd	.	.
16e-\JJ)	.	16dd/JJ)	.	.	.
8E-\L	.	(<8.cc/L	4rd	.	.
8cJ 8G\	.	.	.	.	.
.	.	16g/Jk)	.	.	.
*	*	*v	*v	*	*
=62	=62	=62	=62	=62
16r	.	(>16ee-\LL	.	.
16BB-\LL	.	16dd\)	.	.
16G\	.	(>16dd\	.	.
16d\JJ	.	16cc\JJ)	.	.
!	!	!	!	!LO:HP:b
8E-\L	.	(<8b-/L	.	<
8B-J 8G\	.	16a/L	.	.
.	.	16g/JJ	.	.
=63	=63	=63	=63	=63
8D\L	.	8b-/L	.	.
8B-J 8G\	.	16a/L	.	[
.	.	16g/JJ	.	.
!	!	!	!	!LO:HP:b
8C\L	.	8b-/L	.	>
8B-J 8G\	.	16a/L	.	.
.	.	16g/JJ	.	]]
=64	=64	=64	=64	=64
8AA/	.	8b-/L	.	.
4en 4c#X 4G\	.	16a/L	.	.
.	.	16g/JJ	.	.
.	.	8f#X/L	.	.
8e 8c# 8G\	.	16g/L	.	.
.	.	16a/JJ)	.	.
!!LO:LB:g=original
=65	=65	=65	=65	=65
!	!	!	!	!LO:DY:b
4D 4DD/	.	(>8b-/L	.	f
.	.	16a/L	.	.
.	.	16g/JJ	.	.
8g: 8B-: 8D:\	.	8dd\L	.	.
8r	.	16cc\L	.	.
.	.	16b-\JJ	.	.
=66	=66	=66	=66	=66
2r	.	16a\LL	.	.
!	!	!	!	!LO:HP:b
.	.	16b-\	.	>
.	.	16gg\	.	.
.	.	16dd\JJ	.	.
.	.	16cc\LL	.	.
.	.	16b-\	.	.
.	.	16a\	.	.
.	.	16g\JJ)	.	]
=67	=67	=67	=67	=67
!	!	!	!	!LO:DY:b
4D 4DD/	.	(>16f#X/LL	.	p
.	.	16g/	.	.
.	.	16a/	.	.
.	.	16b-/JJ	.	.
8c 8D\	.	8a/L	.	.
8r	.	16g/L	.	.
.	.	16f#/JJ	.	.
=68	=68	=68	=68	=68
2r	.	16e-/LL	.	.
!	!	!	!	!LO:HP:b
.	.	16d/	.	>
.	.	16cc/	.	.
.	.	16b-/JJ	.	.
.	.	16a\LL	.	.
.	.	16ee-\	.	.
.	.	16dd\	.	.
.	.	16f#X\JJ	.	]]
=69	=69	=69	=69	=69
!	!	!	!	!LO:DY:b
8GG\L	.	4g/)	.	pp
8B-J 8D\	.	.	.	.
8GG\L	.	8r	.	.
8B-J 8D\	.	(>16gg\LL	.	.
.	.	16ff#X\JJ	.	.
!!LO:LB:g=original
=70	=70	=70	=70	=70
8GG/	.	16gg\LL	.	.
.	.	16ffn\	.	.
4Bn 4Fn\	.	16gg\	.	.
.	.	16dd\JJ	.	.
.	.	16gg\LL	.	.
.	.	16bn\	.	.
8B 8F\	.	16gg\	.	.
.	.	16a-X\JJ	.	.
=71	=71	=71	=71	=71
8GG\L	.	4g/)	.	.
8cJ 8E-\	.	.	.	.
8GG\L	.	8r	.	.
8cJ 8E-\	.	(>16ff#X\LL	.	.
.	.	16ee-\JJ	.	.
=72	=72	=72	=72	=72
8GG/	.	16ff#X\LL	.	.
.	.	16dd\	.	.
4c 4D\	.	16ff#\	.	.
.	.	16cc#X\JJ	.	.
.	.	16ff#\LL	.	.
.	.	16ccn\	.	.
8c 8D\	.	16ff#\	.	.
.	.	16a\JJ	.	.
=73	=73	=73	=73	=73
!	!	!	!	!LO:HP:b
8GG\L	.	4g/)	.	<
8B-J 8D\	.	.	.	.
8GG\L	.	8r	.	[
!	!	!	!	!LO:DY:b
8B-J 8D\	.	(>16dd\LL	.	mf
.	.	16cc#X\JJ	.	.
=74	=74	=74	=74	=74
4GG/	.	16dd\LL	.	.
.	.	16b-\	.	.
.	.	16dd\	.	.
.	.	16a\JJ	.	.
8B- 8D\	.	16dd/LL	.	.
.	.	16g/	.	.
8r	.	16dd/	.	.
.	.	16e-/JJ	.	.
!!LO:PB:g=original
=75	=75	=75	=75	=75
!	!	!LO:TX:b:t=P:problem=łuk kończy się pod nutą	!	!
8r	.	4d/)	.	.
(>8B-L 8D\	.	.	.	.
8GG\J)	.	8r	.	.
!	!	!	!	!LO:DY:b:rj
8r	.	(<16b-/LL	.	p
.	.	16c/JJ)	.	.
=76	=76	=76	=76	=76
8B-\	.	8r	.	.
8r	.	(<16g/LL	.	.
.	.	16A/JJ)	.	.
!	!	!LO:TX:i:a:t=morendo	!	!
8G\	.	8r	.	.
8r	.	(<16d/LL	.	.
.	.	16E-</JJ)	.	.
=77	=77	=77	=77	=77
8D\	.	8ryy	.	.
8ryy	.	(<16B-</LL	.	.
.	.	16C</JJ)	.	.
8BB-\	.	8ryy	.	.
8ryy	.	(<16G</LL	.	.
.	.	16AA</JJ)	.	.
=78	=78	=78	=78	=78
*ped	*	*	*	*
8GG\	.	8r	.	.
(<16GGG\LL	.	(>16BB-</LL	.	.
16GG\JJ	.	16D</JJ	.	.
16BB-\LL	.	16G</LL	.	.
16D\	.	16B-</	.	.
16G\	.	16d/	.	.
16B-\JJ	.	16g/JJ	.	.
=79	=79	=79	=79	=79
8d\)	.	8b-/)	.	.
(<16B-\LL	.	(>16g/LL	.	.
16d>\JJ	.	16b-/JJ	.	.
16g>\LL	.	16dd/LL	.	.
16b->\	.	16gg/	.	.
16dd>\	.	16bb-/	.	.
16gg>\JJ	.	16ddd/JJ	.	.
!!LO:LB:g=original
=80	=80	=80	=80	=80
8bb->\)	.	8ggg\)	.	.
*ped	*	*	*	*
8r	.	8r	.	.
!	!	!	!	!LO:DY:b:rj
8E-: 8CC:/	.	8b-: 8c:/	.	pp
*Xped	*	*	*	*
8r	.	8r	.	.
=81	=81	=81	=81	=81
*ped	*	*	*	*
(8qGGG/	.	.	.	.
8D 8GG/)	.	8g 8B-/	.	.
*Xped	*	*	*	*
8r	.	8r	.	.
4r	.	4r	.	.
==	==	==	==	==
*-	*-	*-	*-	*-
!!!system-decoration: {(s1,s2)}
!!!RDF**kern: > = above
!!!RDF**kern: < = below
!!!EED: Antoni Szymański
!!!EEV: 2021-05-29
!!!ENC: Andrzej Kubiczek
!!!END: 2021-05-08
